src/assets/img/sponsors/triceloans.svg

<svg width="124" height="29" viewBox="0 0 124 29" fill="none" xmlns="http://www.w3.org/2000/svg">
<path d="M44.704 8.832V10.64H41.728V20H39.488V10.64H36.512V8.832H44.704ZM48.5784 12.512C48.8664 12.0427 49.2397 11.6747 49.6984 11.408C50.1677 11.1413 50.701 11.008 51.2984 11.008V13.36H50.7064C50.0024 13.36 49.469 13.5253 49.1064 13.856C48.7544 14.1867 48.5784 14.7627 48.5784 15.584V20H46.3384V11.136H48.5784V12.512ZM53.9431 10.08C53.5485 10.08 53.2178 9.95733 52.9511 9.712C52.6951 9.456 52.5671 9.14133 52.5671 8.768C52.5671 8.39467 52.6951 8.08533 52.9511 7.84C53.2178 7.584 53.5485 7.456 53.9431 7.456C54.3378 7.456 54.6631 7.584 54.9191 7.84C55.1858 8.08533 55.3191 8.39467 55.3191 8.768C55.3191 9.14133 55.1858 9.456 54.9191 9.712C54.6631 9.95733 54.3378 10.08 53.9431 10.08ZM55.0471 11.136V20H52.8071V11.136H55.0471ZM56.6842 15.568C56.6842 14.6507 56.8709 13.8507 57.2443 13.168C57.6176 12.4747 58.1349 11.9413 58.7963 11.568C59.4576 11.184 60.2149 10.992 61.0683 10.992C62.1669 10.992 63.0736 11.2693 63.7883 11.824C64.5136 12.368 64.9989 13.136 65.2443 14.128H62.8283C62.7003 13.744 62.4816 13.4453 62.1723 13.232C61.8736 13.008 61.5003 12.896 61.0523 12.896C60.4123 12.896 59.9056 13.1307 59.5323 13.6C59.1589 14.0587 58.9723 14.7147 58.9723 15.568C58.9723 16.4107 59.1589 17.0667 59.5323 17.536C59.9056 17.9947 60.4123 18.224 61.0523 18.224C61.9589 18.224 62.5509 17.8187 62.8283 17.008H65.2443C64.9989 17.968 64.5136 18.7307 63.7883 19.296C63.0629 19.8613 62.1563 20.144 61.0683 20.144C60.2149 20.144 59.4576 19.9573 58.7963 19.584C58.1349 19.2 57.6176 18.6667 57.2443 17.984C56.8709 17.2907 56.6842 16.4853 56.6842 15.568ZM75.1253 15.376C75.1253 15.696 75.1039 15.984 75.0613 16.24H68.5813C68.6346 16.88 68.8586 17.3813 69.2533 17.744C69.6479 18.1067 70.1333 18.288 70.7093 18.288C71.5413 18.288 72.1333 17.9307 72.4853 17.216H74.9013C74.6453 18.0693 74.1546 18.7733 73.4293 19.328C72.7039 19.872 71.8133 20.144 70.7573 20.144C69.9039 20.144 69.1359 19.9573 68.4533 19.584C67.7813 19.2 67.2533 18.6613 66.8693 17.968C66.4959 17.2747 66.3092 16.4747 66.3092 15.568C66.3092 14.6507 66.4959 13.8453 66.8693 13.152C67.2426 12.4587 67.7653 11.9253 68.4373 11.552C69.1093 11.1787 69.8826 10.992 70.7573 10.992C71.5999 10.992 72.3519 11.1733 73.0133 11.536C73.6853 11.8987 74.2026 12.416 74.5653 13.088C74.9386 13.7493 75.1253 14.512 75.1253 15.376ZM72.8053 14.736C72.7946 14.16 72.5866 13.7013 72.1813 13.36C71.7759 13.008 71.2799 12.832 70.6933 12.832C70.1386 12.832 69.6693 13.0027 69.2853 13.344C68.9119 13.6747 68.6826 14.1387 68.5973 14.736H72.8053Z" fill="#2C2C2C"/>
<path d="M79.0003 18.224H82.6803V20H76.7603V8.832H79.0003V18.224ZM88.04 20.144C87.1867 20.144 86.4187 19.9573 85.736 19.584C85.0533 19.2 84.5147 18.6613 84.12 17.968C83.736 17.2747 83.544 16.4747 83.544 15.568C83.544 14.6613 83.7413 13.8613 84.136 13.168C84.5413 12.4747 85.0907 11.9413 85.784 11.568C86.4773 11.184 87.2507 10.992 88.104 10.992C88.9573 10.992 89.7307 11.184 90.424 11.568C91.1173 11.9413 91.6613 12.4747 92.056 13.168C92.4613 13.8613 92.664 14.6613 92.664 15.568C92.664 16.4747 92.456 17.2747 92.04 17.968C91.6347 18.6613 91.08 19.2 90.376 19.584C89.6827 19.9573 88.904 20.144 88.04 20.144ZM88.04 18.192C88.4453 18.192 88.824 18.096 89.176 17.904C89.5387 17.7013 89.8267 17.4027 90.04 17.008C90.2533 16.6133 90.36 16.1333 90.36 15.568C90.36 14.7253 90.136 14.08 89.688 13.632C89.2507 13.1733 88.712 12.944 88.072 12.944C87.432 12.944 86.8933 13.1733 86.456 13.632C86.0293 14.08 85.816 14.7253 85.816 15.568C85.816 16.4107 86.024 17.0613 86.44 17.52C86.8667 17.968 87.4 18.192 88.04 18.192ZM93.7311 15.536C93.7311 14.64 93.9071 13.8453 94.2591 13.152C94.6218 12.4587 95.1071 11.9253 95.7151 11.552C96.3338 11.1787 97.0218 10.992 97.7791 10.992C98.4405 10.992 99.0165 11.1253 99.5071 11.392C100.008 11.6587 100.408 11.9947 100.707 12.4V11.136H102.963V20H100.707V18.704C100.419 19.12 100.019 19.4667 99.5071 19.744C99.0058 20.0107 98.4245 20.144 97.7631 20.144C97.0165 20.144 96.3338 19.952 95.7151 19.568C95.1071 19.184 94.6218 18.6453 94.2591 17.952C93.9071 17.248 93.7311 16.4427 93.7311 15.536ZM100.707 15.568C100.707 15.024 100.6 14.56 100.387 14.176C100.174 13.7813 99.8858 13.4827 99.5231 13.28C99.1605 13.0667 98.7711 12.96 98.3551 12.96C97.9391 12.96 97.5551 13.0613 97.2031 13.264C96.8511 13.4667 96.5631 13.7653 96.3391 14.16C96.1258 14.544 96.0191 15.0027 96.0191 15.536C96.0191 16.0693 96.1258 16.5387 96.3391 16.944C96.5631 17.3387 96.8511 17.6427 97.2031 17.856C97.5658 18.0693 97.9498 18.176 98.3551 18.176C98.7711 18.176 99.1605 18.0747 99.5231 17.872C99.8858 17.6587 100.174 17.36 100.387 16.976C100.6 16.5813 100.707 16.112 100.707 15.568ZM110.063 11.008C111.119 11.008 111.972 11.344 112.623 12.016C113.274 12.6773 113.599 13.6053 113.599 14.8V20H111.359V15.104C111.359 14.4 111.183 13.8613 110.831 13.488C110.479 13.104 109.999 12.912 109.391 12.912C108.772 12.912 108.282 13.104 107.919 13.488C107.567 13.8613 107.391 14.4 107.391 15.104V20H105.151V11.136H107.391V12.24C107.69 11.856 108.068 11.5573 108.527 11.344C108.996 11.12 109.508 11.008 110.063 11.008ZM119.121 20.144C118.396 20.144 117.745 20.016 117.169 19.76C116.593 19.4933 116.134 19.136 115.793 18.688C115.462 18.24 115.281 17.744 115.249 17.2H117.505C117.548 17.5413 117.713 17.824 118.001 18.048C118.3 18.272 118.668 18.384 119.105 18.384C119.532 18.384 119.862 18.2987 120.097 18.128C120.342 17.9573 120.465 17.7387 120.465 17.472C120.465 17.184 120.316 16.9707 120.017 16.832C119.729 16.6827 119.265 16.5227 118.625 16.352C117.964 16.192 117.42 16.0267 116.993 15.856C116.577 15.6853 116.214 15.424 115.905 15.072C115.606 14.72 115.457 14.2453 115.457 13.648C115.457 13.1573 115.596 12.7093 115.873 12.304C116.161 11.8987 116.566 11.5787 117.089 11.344C117.622 11.1093 118.246 10.992 118.961 10.992C120.017 10.992 120.86 11.2587 121.489 11.792C122.118 12.3147 122.465 13.024 122.529 13.92H120.385C120.353 13.568 120.204 13.2907 119.937 13.088C119.681 12.8747 119.334 12.768 118.897 12.768C118.492 12.768 118.177 12.8427 117.953 12.992C117.74 13.1413 117.633 13.3493 117.633 13.616C117.633 13.9147 117.782 14.144 118.081 14.304C118.38 14.4533 118.844 14.608 119.473 14.768C120.113 14.928 120.641 15.0933 121.057 15.264C121.473 15.4347 121.83 15.7013 122.129 16.064C122.438 16.416 122.598 16.8853 122.609 17.472C122.609 17.984 122.465 18.4427 122.177 18.848C121.9 19.2533 121.494 19.5733 120.961 19.808C120.438 20.032 119.825 20.144 119.121 20.144Z" fill="#7CA845"/>
<path d="M16.3974 18.5182L20.8462 13.1834C21.1438 12.8264 21.3235 12.2146 21.3235 11.5581V1.38138C21.3235 0.92014 20.7469 0.71132 20.4515 1.0655L16.3974 5.92709C15.9723 6.43685 15.4862 6.69179 15 6.69179V19.2829C15.4862 19.2829 15.9723 19.028 16.3974 18.5182Z" fill="url(#paint0_linear_2_65)"/>
<path d="M16.3974 18.5182L20.8462 13.1834C21.1438 12.8264 21.3235 12.2146 21.3235 11.5581V1.38138C21.3235 0.92014 20.7469 0.71132 20.4515 1.0655L16.3974 5.92709C15.9723 6.43685 15.4862 6.69179 15 6.69179V19.2829C15.4862 19.2829 15.9723 19.028 16.3974 18.5182Z" fill="url(#paint1_linear_2_65)"/>
<path d="M12.0888 5.75339L3.47501 0.173326C2.76471 -0.286796 1.82695 0.223026 1.82695 1.06933V12.0902C1.82695 12.829 2.2013 13.5175 2.82136 13.9192L12.0888 19.9226C13.8601 21.0701 16.14 21.0701 17.9112 19.9226L27.1787 13.9192C27.7987 13.5175 28.1731 12.829 28.1731 12.0902V1.06939C28.1731 0.223026 27.2354 -0.286797 26.525 0.173376L17.9112 5.75339C16.14 6.90075 13.86 6.90075 12.0888 5.75339Z" fill="url(#paint2_linear_2_65)"/>
<path d="M12.3494 7.58021L4.50636 2.4995C3.85959 2.08056 3.00577 2.54474 3.00577 3.31532V13.3499C3.00577 14.0226 3.34659 14.6495 3.91118 15.0153L12.3493 20.4815C13.962 21.5262 16.0379 21.5262 17.6507 20.4815L26.0888 15.0153C26.6534 14.6495 26.9942 14.0226 26.9942 13.3499V3.31538C26.9942 2.54479 26.1404 2.08056 25.4936 2.49956L17.6507 7.58026C16.0379 8.62491 13.9621 8.62492 12.3494 7.58021Z" fill="url(#paint3_linear_2_65)"/>
<path d="M28.1729 2.77519V12.0899C28.1729 12.8287 27.7988 13.5176 27.1788 13.9193L24.0447 15.9499L17.9112 19.9229C17.0259 20.4964 16.0129 20.7829 15 20.7829V8.31932C16.0129 8.31932 17.0259 8.03284 17.9112 7.45931L26.5253 1.87931C27.2353 1.41931 28.1729 1.92872 28.1729 2.77519Z" fill="url(#paint4_linear_2_65)"/>
<path d="M1.82706 2.77519V12.0899C1.82706 12.8287 2.20117 13.5176 2.82117 13.9193L5.95529 15.9499L12.0888 19.9229C12.9741 20.4964 13.9871 20.7829 15 20.7829V8.31932C13.9871 8.31932 12.9741 8.03284 12.0888 7.45931L3.4747 1.87931C2.7647 1.41931 1.82706 1.92872 1.82706 2.77519Z" fill="url(#paint5_linear_2_65)"/>
<path d="M11.6851 10.9333L1.87659 4.57943C1.06776 4.05549 0 4.63602 0 5.59973V18.149C0 18.9903 0.426235 19.7743 1.13235 20.2316L11.6851 27.0677C13.7019 28.3742 16.2981 28.3742 18.3149 27.0677L28.8676 20.2316C29.5737 19.7742 30 18.9902 30 18.149V5.59973C30 4.63602 28.9322 4.05549 28.1234 4.57943L18.3149 10.9333C16.298 12.2399 13.7019 12.2399 11.6851 10.9333Z" fill="url(#paint6_linear_2_65)"/>
<path d="M18.3149 27.0677L28.8676 20.2316C29.5737 19.7743 30 18.9903 30 18.149V5.59973C30 4.63602 28.9322 4.05549 28.1234 4.57943L18.3149 10.9334C17.3064 11.5866 16.1532 11.9132 15 11.9132V28.0476C16.1532 28.0476 17.3064 27.721 18.3149 27.0677Z" fill="url(#paint7_linear_2_65)"/>
<path d="M30 11.737V18.1487C30 18.9905 29.5735 19.774 28.8676 20.2317L18.3147 27.0675C17.3064 27.7211 16.1535 28.0475 15 28.0475V21.6358C16.1529 21.6358 17.3064 21.3087 18.3147 20.6558L28.8676 13.8199C29.5735 13.3622 30 12.5787 30 11.737Z" fill="url(#paint8_linear_2_65)"/>
<path d="M0 11.737V18.1487C0 18.9905 0.426471 19.774 1.13235 20.2317L11.6853 27.0675C12.6935 27.7211 13.8465 28.0475 15 28.0475V21.6358C13.8471 21.6358 12.6935 21.3087 11.6853 20.6558L1.13235 13.8199C0.426471 13.3622 0 12.5787 0 11.737Z" fill="url(#paint9_linear_2_65)"/>
<path d="M9.84312 16.6364V22.6534L2.33077 15.1405C1.82665 14.7487 4.9443 11.6311 5.33606 12.1352L9.84312 16.6364Z" fill="url(#paint10_linear_2_65)"/>
<path d="M3.64441 15.5912C4.82766 15.5912 5.78688 14.632 5.78688 13.4487C5.78688 12.2655 4.82766 11.3062 3.64441 11.3062C2.46115 11.3062 1.50194 12.2655 1.50194 13.4487C1.50194 14.632 2.46115 15.5912 3.64441 15.5912Z" fill="url(#paint11_linear_2_65)"/>
<defs>
<linearGradient id="paint0_linear_2_65" x1="13.1225" y1="5.18973" x2="17.6688" y2="9.736" gradientUnits="userSpaceOnUse">
<stop stop-color="#BCE097"/>
<stop offset="1" stop-color="#7DC03A"/>
</linearGradient>
<linearGradient id="paint1_linear_2_65" x1="15.2643" y1="6.4282" x2="16.5584" y2="8.13409" gradientUnits="userSpaceOnUse">
<stop stop-color="#3E6E66" stop-opacity="0"/>
<stop offset="1" stop-color="#3E6E66"/>
</linearGradient>
<linearGradient id="paint2_linear_2_65" x1="6.73671" y1="-1.45386" x2="20.3973" y2="12.2067" gradientUnits="userSpaceOnUse">
<stop stop-color="#BCE097"/>
<stop offset="1" stop-color="#7DC03A"/>
</linearGradient>
<linearGradient id="paint3_linear_2_65" x1="7.96577" y1="-4.82156" x2="18.4364" y2="14.9432" gradientUnits="userSpaceOnUse">
<stop stop-color="#8CC951" stop-opacity="0"/>
<stop offset="1" stop-color="#3E6E66"/>
</linearGradient>
<linearGradient id="paint4_linear_2_65" x1="19.0985" y1="7.88384" x2="20.5102" y2="10.0015" gradientUnits="userSpaceOnUse">
<stop stop-color="#3E6E66" stop-opacity="0"/>
<stop offset="1" stop-color="#3E6E66"/>
</linearGradient>
<linearGradient id="paint5_linear_2_65" x1="10.9015" y1="7.88384" x2="9.48976" y2="10.0015" gradientUnits="userSpaceOnUse">
<stop stop-color="#3E6E66" stop-opacity="0"/>
<stop offset="1" stop-color="#3E6E66"/>
</linearGradient>
<linearGradient id="paint6_linear_2_65" x1="11.9536" y1="6.78032" x2="24.8948" y2="29.1333" gradientUnits="userSpaceOnUse">
<stop stop-color="#6EAB31"/>
<stop offset="1" stop-color="#464646"/>
</linearGradient>
<linearGradient id="paint7_linear_2_65" x1="22.4538" y1="15.3833" x2="19.395" y2="30.4421" gradientUnits="userSpaceOnUse">
<stop stop-color="#464646" stop-opacity="0"/>
<stop offset="1" stop-color="#202020"/>
</linearGradient>
<linearGradient id="paint8_linear_2_65" x1="22.9089" y1="20.5507" x2="24.3773" y2="22.915" gradientUnits="userSpaceOnUse">
<stop stop-color="#264B00" stop-opacity="0"/>
<stop offset="1" stop-color="#183100"/>
</linearGradient>
<linearGradient id="paint9_linear_2_65" x1="6.99694" y1="20.8812" x2="5.46271" y2="23.8972" gradientUnits="userSpaceOnUse">
<stop stop-color="#464646" stop-opacity="0"/>
<stop offset="1" stop-color="#2A4312"/>
</linearGradient>
<linearGradient id="paint10_linear_2_65" x1="6.65724" y1="16.8912" x2="1.24548" y2="14.0089" gradientUnits="userSpaceOnUse">
<stop stop-color="#464646" stop-opacity="0"/>
<stop offset="1" stop-color="#202020"/>
</linearGradient>
<linearGradient id="paint11_linear_2_65" x1="2.04641" y1="11.8507" x2="4.72128" y2="14.5256" gradientUnits="userSpaceOnUse">
<stop stop-color="#F7E07D"/>
<stop offset="0.2892" stop-color="#F3CF6F"/>
<stop offset="0.862" stop-color="#E9A24B"/>
<stop offset="1" stop-color="#E69642"/>
</linearGradient>
</defs>
</svg>

<svg xmlns="http://www.w3.org/2000/svg" width="124" height="29" fill="none">
  <path fill="#2C2C2C" d="M44.704 8.832v1.808h-2.976V20h-2.24v-9.36h-2.976V8.832h8.192Zm3.874 3.68a3.17 3.17 0 0 1 1.12-1.104c.47-.267 1.003-.4 1.6-.4v2.352h-.592c-.704 0-1.237.165-1.6.496-.352.33-.528.907-.528 1.728V20h-2.24v-8.864h2.24v1.376Zm5.365-2.432c-.395 0-.725-.123-.992-.368a1.283 1.283 0 0 1-.384-.944c0-.373.128-.683.384-.928.267-.256.597-.384.992-.384s.72.128.976.384c.267.245.4.555.4.928s-.133.688-.4.944c-.256.245-.581.368-.976.368Zm1.104 1.056V20h-2.24v-8.864h2.24Zm1.637 4.432c0-.917.187-1.717.56-2.4a3.936 3.936 0 0 1 1.552-1.6c.662-.384 1.419-.576 2.272-.576 1.099 0 2.006.277 2.72.832.726.544 1.21 1.312 1.456 2.304h-2.416a1.709 1.709 0 0 0-.656-.896c-.298-.224-.672-.336-1.12-.336-.64 0-1.146.235-1.52.704-.373.459-.56 1.115-.56 1.968 0 .843.187 1.499.56 1.968.374.459.88.688 1.52.688.907 0 1.499-.405 1.776-1.216h2.416c-.245.96-.73 1.723-1.456 2.288-.725.565-1.632.848-2.72.848-.853 0-1.61-.187-2.272-.56a4.07 4.07 0 0 1-1.552-1.6c-.373-.693-.56-1.499-.56-2.416Zm18.441-.192c0 .32-.021.608-.064.864h-6.48c.054.64.278 1.141.672 1.504.395.363.88.544 1.456.544.832 0 1.424-.357 1.776-1.072h2.416a4.079 4.079 0 0 1-1.472 2.112c-.725.544-1.616.816-2.672.816-.853 0-1.621-.187-2.304-.56a4.122 4.122 0 0 1-1.584-1.616c-.373-.693-.56-1.493-.56-2.4 0-.917.187-1.723.56-2.416a3.907 3.907 0 0 1 1.568-1.6c.672-.373 1.446-.56 2.32-.56.843 0 1.595.181 2.256.544a3.75 3.75 0 0 1 1.552 1.552c.374.661.56 1.424.56 2.288Zm-2.32-.64c-.01-.576-.218-1.035-.624-1.376-.405-.352-.901-.528-1.488-.528-.554 0-1.024.17-1.408.512-.373.33-.602.795-.688 1.392h4.208Z"/>
  <path fill="#7CA845" d="M79 18.224h3.68V20h-5.92V8.832H79v9.392Zm9.04 1.92c-.853 0-1.621-.187-2.304-.56a4.201 4.201 0 0 1-1.616-1.616c-.384-.693-.576-1.493-.576-2.4 0-.907.197-1.707.592-2.4a4.168 4.168 0 0 1 1.648-1.6c.693-.384 1.467-.576 2.32-.576.853 0 1.627.192 2.32.576a4.061 4.061 0 0 1 1.632 1.6c.405.693.608 1.493.608 2.4 0 .907-.208 1.707-.624 2.4a4.252 4.252 0 0 1-1.664 1.616c-.693.373-1.472.56-2.336.56Zm0-1.952c.405 0 .784-.096 1.136-.288.363-.203.65-.501.864-.896.213-.395.32-.875.32-1.44 0-.843-.224-1.488-.672-1.936a2.145 2.145 0 0 0-1.616-.688c-.64 0-1.179.23-1.616.688-.427.448-.64 1.093-.64 1.936s.208 1.493.624 1.952c.427.448.96.672 1.6.672Zm5.691-2.656c0-.896.176-1.69.528-2.384.363-.693.848-1.227 1.456-1.6a3.918 3.918 0 0 1 2.064-.56c.662 0 1.237.133 1.728.4.501.267.901.603 1.2 1.008v-1.264h2.256V20h-2.256v-1.296c-.288.416-.688.763-1.2 1.04-.501.267-1.083.4-1.744.4-.747 0-1.43-.192-2.048-.576-.608-.384-1.093-.923-1.456-1.616-.352-.704-.528-1.51-.528-2.416Zm6.976.032c0-.544-.107-1.008-.32-1.392a2.187 2.187 0 0 0-.864-.896 2.265 2.265 0 0 0-1.168-.32c-.416 0-.8.101-1.152.304-.352.203-.64.501-.864.896-.213.384-.32.843-.32 1.376 0 .533.107 1.003.32 1.408.224.395.512.699.864.912.363.213.747.32 1.152.32.416 0 .805-.101 1.168-.304a2.32 2.32 0 0 0 .864-.896c.213-.395.32-.864.32-1.408Zm9.356-4.56c1.056 0 1.909.336 2.56 1.008.651.661.976 1.59.976 2.784V20h-2.24v-4.896c0-.704-.176-1.243-.528-1.616-.352-.384-.832-.576-1.44-.576-.619 0-1.109.192-1.472.576-.352.373-.528.912-.528 1.616V20h-2.24v-8.864h2.24v1.104a3.037 3.037 0 0 1 1.136-.896 3.518 3.518 0 0 1 1.536-.336Zm9.058 9.136c-.725 0-1.376-.128-1.952-.384-.576-.267-1.035-.624-1.376-1.072a2.725 2.725 0 0 1-.544-1.488h2.256c.043.341.208.624.496.848.299.224.667.336 1.104.336.427 0 .757-.085.992-.256.245-.17.368-.39.368-.656 0-.288-.149-.501-.448-.64-.288-.15-.752-.31-1.392-.48a12.287 12.287 0 0 1-1.632-.496 2.898 2.898 0 0 1-1.088-.784c-.299-.352-.448-.827-.448-1.424 0-.49.139-.939.416-1.344.288-.405.693-.725 1.216-.96.533-.235 1.157-.352 1.872-.352 1.056 0 1.899.267 2.528.8.629.523.976 1.232 1.04 2.128h-2.144a1.124 1.124 0 0 0-.448-.832c-.256-.213-.603-.32-1.04-.32-.405 0-.72.075-.944.224a.72.72 0 0 0-.32.624c0 .299.149.528.448.688.299.15.763.304 1.392.464.64.16 1.168.325 1.584.496.416.17.773.437 1.072.8.309.352.469.821.48 1.408 0 .512-.144.97-.432 1.376-.277.405-.683.725-1.216.96-.523.224-1.136.336-1.84.336Z"/>
  <path fill="url(#a)" d="m16.397 18.518 4.45-5.335c.297-.357.476-.968.476-1.625V1.381a.493.493 0 0 0-.872-.316l-4.054 4.862c-.425.51-.91.765-1.397.765v12.59c.486 0 .972-.254 1.397-.764Z"/>
  <path fill="url(#b)" d="m16.397 18.518 4.45-5.335c.297-.357.476-.968.476-1.625V1.381a.493.493 0 0 0-.872-.316l-4.054 4.862c-.425.51-.91.765-1.397.765v12.59c.486 0 .972-.254 1.397-.764Z"/>
  <path fill="url(#c)" d="M12.089 5.753 3.475.173c-.71-.46-1.648.05-1.648.896V12.09c0 .739.374 1.428.994 1.83l9.268 6.003a5.354 5.354 0 0 0 5.822 0l9.268-6.004a2.18 2.18 0 0 0 .994-1.829V1.07c0-.847-.938-1.357-1.648-.897l-8.614 5.58a5.355 5.355 0 0 1-5.822 0Z"/>
  <path fill="url(#d)" d="M12.35 7.58 4.505 2.5a.972.972 0 0 0-1.5.815V13.35c0 .673.34 1.3.905 1.665l8.438 5.466a4.875 4.875 0 0 0 5.302 0l8.438-5.466c.564-.366.905-.992.905-1.665V3.315a.972.972 0 0 0-1.5-.815L17.65 7.58a4.875 4.875 0 0 1-5.302 0Z"/>
  <path fill="url(#e)" d="M28.173 2.775v9.315a2.18 2.18 0 0 1-.994 1.83l-3.134 2.03-6.134 3.973a5.35 5.35 0 0 1-2.911.86V8.319a5.35 5.35 0 0 0 2.911-.86l8.614-5.58c.71-.46 1.648.05 1.648.896Z"/>
  <path fill="url(#f)" d="M1.827 2.775v9.315c0 .739.374 1.428.994 1.83l3.134 2.03 6.134 3.973a5.35 5.35 0 0 0 2.911.86V8.319a5.35 5.35 0 0 1-2.911-.86L3.475 1.88c-.71-.46-1.648.05-1.648.896Z"/>
  <path fill="url(#g)" d="M11.685 10.933 1.877 4.58A1.216 1.216 0 0 0 0 5.6v12.55c0 .841.426 1.625 1.132 2.083l10.553 6.836a6.097 6.097 0 0 0 6.63 0l10.553-6.836A2.481 2.481 0 0 0 30 18.149V5.599a1.216 1.216 0 0 0-1.877-1.02l-9.808 6.354a6.097 6.097 0 0 1-6.63 0Z"/>
  <path fill="url(#h)" d="m18.315 27.068 10.553-6.836A2.481 2.481 0 0 0 30 18.149V5.599a1.216 1.216 0 0 0-1.877-1.02l-9.808 6.354a6.092 6.092 0 0 1-3.315.98v16.135a6.091 6.091 0 0 0 3.315-.98Z"/>
  <path fill="url(#i)" d="M30 11.737v6.412c0 .841-.427 1.625-1.132 2.083l-10.553 6.835a6.087 6.087 0 0 1-3.315.98v-6.411a6.094 6.094 0 0 0 3.315-.98l10.553-6.836A2.482 2.482 0 0 0 30 11.737Z"/>
  <path fill="url(#j)" d="M0 11.737v6.412c0 .841.426 1.625 1.132 2.083l10.553 6.835a6.087 6.087 0 0 0 3.315.98v-6.411a6.094 6.094 0 0 1-3.315-.98L1.132 13.82A2.482 2.482 0 0 1 0 11.737Z"/>
  <path fill="url(#k)" d="M9.843 16.636v6.017l-7.512-7.512c-.504-.392 2.613-3.51 3.005-3.006l4.507 4.501Z"/>
  <path fill="url(#l)" d="M3.644 15.591a2.142 2.142 0 1 0 0-4.285 2.142 2.142 0 0 0 0 4.285Z"/>
  <defs>
    <linearGradient id="a" x1="13.123" x2="17.669" y1="5.19" y2="9.736" gradientUnits="userSpaceOnUse">
      <stop stop-color="#BCE097"/>
      <stop offset="1" stop-color="#7DC03A"/>
    </linearGradient>
    <linearGradient id="b" x1="15.264" x2="16.558" y1="6.428" y2="8.134" gradientUnits="userSpaceOnUse">
      <stop stop-color="#3E6E66" stop-opacity="0"/>
      <stop offset="1" stop-color="#3E6E66"/>
    </linearGradient>
    <linearGradient id="c" x1="6.737" x2="20.397" y1="-1.454" y2="12.207" gradientUnits="userSpaceOnUse">
      <stop stop-color="#BCE097"/>
      <stop offset="1" stop-color="#7DC03A"/>
    </linearGradient>
    <linearGradient id="d" x1="7.966" x2="18.436" y1="-4.822" y2="14.943" gradientUnits="userSpaceOnUse">
      <stop stop-color="#8CC951" stop-opacity="0"/>
      <stop offset="1" stop-color="#3E6E66"/>
    </linearGradient>
    <linearGradient id="e" x1="19.099" x2="20.51" y1="7.884" y2="10.002" gradientUnits="userSpaceOnUse">
      <stop stop-color="#3E6E66" stop-opacity="0"/>
      <stop offset="1" stop-color="#3E6E66"/>
    </linearGradient>
    <linearGradient id="f" x1="10.902" x2="9.49" y1="7.884" y2="10.002" gradientUnits="userSpaceOnUse">
      <stop stop-color="#3E6E66" stop-opacity="0"/>
      <stop offset="1" stop-color="#3E6E66"/>
    </linearGradient>
    <linearGradient id="g" x1="11.954" x2="24.895" y1="6.78" y2="29.133" gradientUnits="userSpaceOnUse">
      <stop stop-color="#6EAB31"/>
      <stop offset="1" stop-color="#464646"/>
    </linearGradient>
    <linearGradient id="h" x1="22.454" x2="19.395" y1="15.383" y2="30.442" gradientUnits="userSpaceOnUse">
      <stop stop-color="#464646" stop-opacity="0"/>
      <stop offset="1" stop-color="#202020"/>
    </linearGradient>
    <linearGradient id="i" x1="22.909" x2="24.377" y1="20.551" y2="22.915" gradientUnits="userSpaceOnUse">
      <stop stop-color="#264B00" stop-opacity="0"/>
      <stop offset="1" stop-color="#183100"/>
    </linearGradient>
    <linearGradient id="j" x1="6.997" x2="5.463" y1="20.881" y2="23.897" gradientUnits="userSpaceOnUse">
      <stop stop-color="#464646" stop-opacity="0"/>
      <stop offset="1" stop-color="#2A4312"/>
    </linearGradient>
    <linearGradient id="k" x1="6.657" x2="1.245" y1="16.891" y2="14.009" gradientUnits="userSpaceOnUse">
      <stop stop-color="#464646" stop-opacity="0"/>
      <stop offset="1" stop-color="#202020"/>
    </linearGradient>
    <linearGradient id="l" x1="2.046" x2="4.721" y1="11.851" y2="14.526" gradientUnits="userSpaceOnUse">
      <stop stop-color="#F7E07D"/>
      <stop offset=".289" stop-color="#F3CF6F"/>
      <stop offset=".862" stop-color="#E9A24B"/>
      <stop offset="1" stop-color="#E69642"/>
    </linearGradient>
  </defs>
</svg>
